betterme/img/page-checkout/Star_5start_cgispk.svg

<svg width="13" height="13" viewBox="0 0 13 13" fill="none" xmlns="http://www.w3.org/2000/svg">
<path d="M5.7896 0.756229C5.96921 0.203443 6.75126 0.203445 6.93087 0.756231L8.09775 4.34752H11.8739C12.4551 4.34752 12.6968 5.09129 12.2265 5.43293L9.17159 7.65248L10.3385 11.2438C10.5181 11.7966 9.8854 12.2562 9.41517 11.9146L6.36024 9.69505L3.3053 11.9146C2.83507 12.2562 2.20238 11.7966 2.38199 11.2438L3.54888 7.65248L0.493937 5.43293C0.0237092 5.09129 0.265376 4.34752 0.84661 4.34752H4.62272L5.7896 0.756229Z" fill="#FF8600"/>
</svg>

<svg xmlns="http://www.w3.org/2000/svg" width="13" height="13" fill="none" xmlns:v="https://vecta.io/nano"><path d="M5.79.756c.18-.553.962-.553 1.141 0l1.167 3.591h3.776c.581 0 .823.744.353 1.085l-3.055 2.22 1.167 3.591c.18.553-.453 1.012-.923.671L6.36 9.695l-3.055 2.22c-.47.342-1.103-.118-.923-.671l1.167-3.591-3.055-2.22c-.47-.342-.229-1.085.353-1.085h3.776L5.79.756z" fill="#ff8600"/></svg>
